X:1
T:Rory of the Hills
M:6/8
L:1/8
R:March
S:O’Neill – Music of Ireland (1903), No. 1810
Z:AK/Fiddler’s Companion
K:D
{A/B/}A2F {A/B/}A2E | {A/B/}A2F {A/B/}A2D | {B/=c/}B2G {A/B/}A2E |
{G/A/}GzF E{F/E/}D | {A/B/}A2F {A/B/}A2D |{A/B/}A2F {A/B/}A2D |
{B/=c/}B2d AdG | FdF E2 {F/E/}D | {F/G/}F2D {G/A/}G2E | A3 AGF |
E<=cG E2 C | G<cG ECE | D>ED D>ED D>ED D>ED || {B/=c/}B2G B<dG |
{B/=c/}B2G B<dG | {A/B/}A2e {A/B/}A2F | {A/B/}A2e {A/B/}A2F |
{B/=c/}B2B A<dA | G<=cG E2C | {F/G/}F2D {G/A/}G2E | A3 AGF |
E<=cG ECE | G<=cG ECE | D>ED D>ED | D>ED D>ED ||

